svg/emoticon_sad_outline.svg

<svg xmlns="http://www.w3.org/2000/svg" viewBox="0 0 24 24"><path d="M20 12a8 8 0 0 0-8-8 8 8 0 0 0-8 8 8 8 0 0 0 8 8 8 8 0 0 0 8-8m2 0a10 10 0 0 1-10 10A10 10 0 0 1 2 12 10 10 0 0 1 12 2a10 10 0 0 1 10 10m-6.5-4c.8 0 1.5.7 1.5 1.5s-.7 1.5-1.5 1.5-1.5-.7-1.5-1.5.7-1.5 1.5-1.5M10 9.5c0 .8-.7 1.5-1.5 1.5S7 10.3 7 9.5 7.7 8 8.5 8s1.5.7 1.5 1.5m2 4.5c1.75 0 3.29.72 4.19 1.81l-1.42 1.42C14.32 16.5 13.25 16 12 16s-2.32.5-2.77 1.23l-1.42-1.42C8.71 14.72 10.25 14 12 14"/></svg>

<?xml version="1.0" encoding="UTF-8"?><!DOCTYPE svg PUBLIC "-//W3C//DTD SVG 1.1//EN" "http://www.w3.org/Graphics/SVG/1.1/DTD/svg11.dtd"><svg xmlns="http://www.w3.org/2000/svg" xmlns:xlink="http://www.w3.org/1999/xlink" version="1.1" id="mdi-emoticon-sad-outline" width="24" height="24" viewBox="0 0 24 24"><path d="M20,12A8,8 0 0,0 12,4A8,8 0 0,0 4,12A8,8 0 0,0 12,20A8,8 0 0,0 20,12M22,12A10,10 0 0,1 12,22A10,10 0 0,1 2,12A10,10 0 0,1 12,2A10,10 0 0,1 22,12M15.5,8C16.3,8 17,8.7 17,9.5C17,10.3 16.3,11 15.5,11C14.7,11 14,10.3 14,9.5C14,8.7 14.7,8 15.5,8M10,9.5C10,10.3 9.3,11 8.5,11C7.7,11 7,10.3 7,9.5C7,8.7 7.7,8 8.5,8C9.3,8 10,8.7 10,9.5M12,14C13.75,14 15.29,14.72 16.19,15.81L14.77,17.23C14.32,16.5 13.25,16 12,16C10.75,16 9.68,16.5 9.23,17.23L7.81,15.81C8.71,14.72 10.25,14 12,14Z" /></svg>
